!!!OTL: DR HANS HAT HOSEN A
!!!ARE: Europa, Mitteleuropa, Deutschland; France, Elsass
!!!SCT: K0298
!!!YEM: Copyright 1995, estate of Helmut Schaffrath.
**kern
*ICvox
*Ivox
*M2/4
*k[b-]
*F:
=1
{4f
4g
=2
8.a
16g
8f}
{8a
=3
4g
4e
=4
4f
4r}
=5
{8f
8f
8g
8g
=6
8.a
16g
8f}
{8a
=7
4g
4e
=8
4f
4r}
=9
{8cc
8b-
8g
8g
=10
8cc
8a
8f
8f}
=11
{8cc
8b-
8g
8g
=12
8cc
8a
8f
8f}
=13
{4f
4g
=14
8.a
16g
8f}
{8a
=15
4g
4e
=16
4f
4r}
==
!!!AGN: Kinder -, Kose -, Scherz - Lied
!!!ONB: ESAC (Essen Associative Code) Database: KINDER
!!!AMT: simple duple
!!!AIN: vox
!!!EED: Helmut Schaffrath
!!!EEV: 1.0
*-
